public/logos/B2.svg

<?xml version="1.0" encoding="UTF-8"?>
<svg xmlns="http://www.w3.org/2000/svg" xmlns:xlink="http://www.w3.org/1999/xlink" width="176pt" height="49.36pt" viewBox="0 0 176 49.36" version="1.1">
<defs>
<clipPath id="clip1">
  <path d="M 34 21 L 62 21 L 62 49.359375 L 34 49.359375 Z M 34 21 "/>
</clipPath>
<clipPath id="clip2">
  <path d="M 76 21 L 105 21 L 105 49.359375 L 76 49.359375 Z M 76 21 "/>
</clipPath>
<clipPath id="clip3">
  <path d="M 148 21 L 176 21 L 176 49.359375 L 148 49.359375 Z M 148 21 "/>
</clipPath>
</defs>
<g id="surface1">
<path style=" stroke:none;fill-rule:nonzero;fill:rgb(27.113342%,36.088562%,78.102112%);fill-opacity:1;" d="M 139.992188 7.0625 C 141.054688 6.621094 142.28125 7.125 142.722656 8.195312 C 143.160156 9.257812 142.652344 10.480469 141.589844 10.917969 C 140.523438 11.359375 139.304688 10.855469 138.863281 9.792969 C 138.421875 8.722656 138.925781 7.503906 139.992188 7.0625 "/>
<path style=" stroke:none;fill-rule:nonzero;fill:rgb(27.113342%,36.088562%,78.102112%);fill-opacity:1;" d="M 142.351562 17.929688 C 142.398438 18.007812 142.515625 17.996094 142.539062 17.90625 L 142.757812 16.808594 C 142.773438 16.722656 142.882812 16.699219 142.929688 16.769531 L 143.601562 17.667969 C 143.65625 17.734375 143.773438 17.699219 143.78125 17.601562 L 143.796875 16.488281 C 143.796875 16.441406 143.820312 16.410156 143.855469 16.394531 C 143.886719 16.378906 143.933594 16.382812 143.960938 16.421875 L 144.765625 17.195312 C 144.835938 17.257812 144.945312 17.199219 144.933594 17.113281 L 144.773438 16.003906 C 144.761719 15.917969 144.855469 15.859375 144.921875 15.910156 L 145.859375 16.53125 C 145.9375 16.578125 146.03125 16.5 146.003906 16.417969 L 145.609375 15.175781 C 145.601562 15.15625 145.597656 15.144531 145.585938 15.136719 L 142.753906 12.003906 C 142.730469 11.96875 142.683594 11.964844 142.652344 11.996094 C 142.503906 12.113281 142.335938 12.203125 142.152344 12.28125 C 141.964844 12.359375 141.777344 12.414062 141.59375 12.433594 C 141.554688 12.433594 141.523438 12.46875 141.535156 12.511719 L 141.738281 16.730469 C 141.742188 16.738281 141.75 16.753906 141.757812 16.769531 L 142.351562 17.929688 "/>
<path style=" stroke:none;fill-rule:nonzero;fill:rgb(27.113342%,36.088562%,78.102112%);fill-opacity:1;" d="M 139.226562 0.0546875 C 139.1875 -0.0273438 139.066406 -0.0117188 139.046875 0.0742188 L 138.820312 1.175781 C 138.808594 1.261719 138.699219 1.28125 138.648438 1.214844 L 137.976562 0.320312 C 137.925781 0.25 137.804688 0.285156 137.800781 0.378906 L 137.78125 1.496094 C 137.78125 1.535156 137.757812 1.574219 137.722656 1.589844 C 137.6875 1.601562 137.644531 1.589844 137.613281 1.566406 L 136.816406 0.789062 C 136.742188 0.726562 136.636719 0.785156 136.644531 0.871094 L 136.804688 1.980469 C 136.816406 2.058594 136.726562 2.121094 136.652344 2.074219 L 135.722656 1.449219 C 135.644531 1.40625 135.554688 1.480469 135.574219 1.566406 L 135.972656 2.808594 C 135.980469 2.824219 135.984375 2.839844 135.988281 2.847656 L 138.828125 5.980469 C 138.847656 6.011719 138.898438 6.015625 138.921875 5.992188 C 139.066406 5.871094 139.234375 5.769531 139.425781 5.691406 C 139.609375 5.617188 139.792969 5.570312 139.984375 5.550781 C 140.027344 5.550781 140.058594 5.511719 140.050781 5.476562 L 139.835938 1.253906 C 139.839844 1.242188 139.832031 1.230469 139.824219 1.210938 L 139.226562 0.0546875 "/>
<path style=" stroke:none;fill-rule:nonzero;fill:rgb(27.113342%,36.088562%,78.102112%);fill-opacity:1;" d="M 149.730469 7.429688 C 149.804688 7.382812 149.789062 7.265625 149.703125 7.246094 L 148.597656 7.023438 C 148.515625 7.003906 148.492188 6.902344 148.554688 6.851562 L 149.453125 6.179688 C 149.53125 6.121094 149.488281 6.007812 149.398438 6.007812 L 148.28125 5.988281 C 148.238281 5.984375 148.203125 5.960938 148.191406 5.925781 C 148.175781 5.890625 148.183594 5.851562 148.210938 5.816406 L 148.988281 5.015625 C 149.050781 4.949219 149 4.839844 148.90625 4.855469 L 147.792969 5.007812 C 147.714844 5.019531 147.65625 4.933594 147.699219 4.863281 L 148.324219 3.921875 C 148.371094 3.847656 148.300781 3.75 148.214844 3.773438 L 146.96875 4.175781 C 146.957031 4.179688 146.945312 4.191406 146.929688 4.195312 L 143.796875 7.027344 C 143.773438 7.050781 143.765625 7.097656 143.785156 7.125 C 143.910156 7.273438 144.003906 7.445312 144.085938 7.628906 C 144.15625 7.8125 144.214844 8 144.226562 8.1875 C 144.234375 8.226562 144.269531 8.253906 144.308594 8.253906 L 148.527344 8.046875 C 148.539062 8.039062 148.554688 8.035156 148.566406 8.027344 L 149.730469 7.429688 "/>
<path style=" stroke:none;fill-rule:nonzero;fill:rgb(27.113342%,36.088562%,78.102112%);fill-opacity:1;" d="M 131.851562 10.550781 C 131.773438 10.59375 131.792969 10.714844 131.878906 10.734375 L 132.980469 10.960938 C 133.0625 10.980469 133.085938 11.082031 133.019531 11.128906 L 132.121094 11.804688 C 132.054688 11.859375 132.089844 11.976562 132.183594 11.972656 L 133.300781 11.996094 C 133.347656 11.996094 133.375 12.019531 133.386719 12.058594 C 133.402344 12.09375 133.402344 12.132812 133.367188 12.164062 L 132.59375 12.96875 C 132.527344 13.035156 132.585938 13.140625 132.671875 13.128906 L 133.78125 12.972656 C 133.863281 12.964844 133.921875 13.050781 133.875 13.121094 L 133.257812 14.058594 C 133.207031 14.132812 133.28125 14.230469 133.367188 14.210938 L 134.605469 13.808594 C 134.625 13.804688 134.636719 13.800781 134.648438 13.792969 L 137.792969 10.953125 C 137.8125 10.925781 137.816406 10.886719 137.789062 10.855469 C 137.671875 10.710938 137.578125 10.535156 137.496094 10.355469 C 137.425781 10.167969 137.367188 9.984375 137.347656 9.792969 C 137.347656 9.753906 137.316406 9.726562 137.28125 9.726562 L 133.054688 9.945312 C 133.039062 9.949219 133.027344 9.949219 133.011719 9.957031 L 131.851562 10.550781 "/>
<path style=" stroke:none;fill-rule:nonzero;fill:rgb(27.113342%,36.088562%,78.102112%);fill-opacity:1;" d="M 148.210938 14.207031 C 148.304688 14.238281 148.371094 14.140625 148.328125 14.058594 L 147.703125 13.121094 C 147.65625 13.058594 147.710938 12.960938 147.800781 12.976562 L 148.902344 13.136719 C 148.992188 13.144531 149.058594 13.03125 148.988281 12.964844 L 148.214844 12.160156 C 148.179688 12.132812 148.175781 12.09375 148.191406 12.058594 C 148.214844 12.027344 148.234375 11.996094 148.285156 12 L 149.402344 11.976562 C 149.488281 11.980469 149.527344 11.867188 149.449219 11.804688 L 148.5625 11.132812 C 148.492188 11.082031 148.515625 10.976562 148.601562 10.957031 L 149.703125 10.738281 C 149.789062 10.714844 149.808594 10.59375 149.722656 10.554688 L 148.566406 9.953125 C 148.550781 9.957031 148.535156 9.945312 148.519531 9.941406 L 144.308594 9.726562 C 144.273438 9.726562 144.238281 9.757812 144.234375 9.796875 C 144.214844 9.984375 144.15625 10.167969 144.089844 10.359375 C 144.003906 10.542969 143.90625 10.710938 143.792969 10.855469 C 143.765625 10.886719 143.765625 10.929688 143.800781 10.957031 L 146.933594 13.785156 C 146.9375 13.792969 146.957031 13.796875 146.96875 13.808594 L 148.210938 14.207031 "/>
<path style=" stroke:none;fill-rule:nonzero;fill:rgb(27.113342%,36.088562%,78.102112%);fill-opacity:1;" d="M 133.363281 3.777344 C 133.273438 3.746094 133.203125 3.84375 133.253906 3.921875 L 133.882812 4.859375 C 133.921875 4.933594 133.871094 5.023438 133.777344 5.007812 L 132.675781 4.851562 C 132.589844 4.839844 132.527344 4.949219 132.589844 5.019531 L 133.367188 5.824219 C 133.402344 5.855469 133.398438 5.890625 133.382812 5.925781 C 133.378906 5.960938 133.339844 5.988281 133.300781 5.984375 L 132.179688 6.007812 C 132.085938 6.011719 132.054688 6.121094 132.125 6.179688 L 133.015625 6.851562 C 133.085938 6.902344 133.058594 7.007812 132.976562 7.023438 L 131.878906 7.246094 C 131.789062 7.269531 131.769531 7.390625 131.851562 7.425781 L 133.015625 8.027344 C 133.03125 8.039062 133.046875 8.035156 133.050781 8.039062 L 137.265625 8.253906 C 137.308594 8.253906 137.34375 8.222656 137.34375 8.1875 C 137.367188 8 137.421875 7.816406 137.492188 7.621094 C 137.574219 7.441406 137.671875 7.277344 137.792969 7.125 C 137.8125 7.097656 137.808594 7.046875 137.777344 7.03125 L 134.640625 4.199219 C 134.636719 4.191406 134.621094 4.1875 134.605469 4.175781 L 133.363281 3.777344 "/>
<path style=" stroke:none;fill-rule:nonzero;fill:rgb(27.113342%,36.088562%,78.102112%);fill-opacity:1;" d="M 146 1.566406 C 146.03125 1.480469 145.933594 1.410156 145.859375 1.453125 L 144.921875 2.078125 C 144.847656 2.125 144.757812 2.066406 144.769531 1.984375 L 144.921875 0.878906 C 144.9375 0.785156 144.832031 0.734375 144.769531 0.789062 L 143.964844 1.566406 C 143.929688 1.601562 143.894531 1.605469 143.855469 1.589844 C 143.816406 1.574219 143.796875 1.550781 143.800781 1.503906 L 143.777344 0.382812 C 143.78125 0.289062 143.65625 0.253906 143.597656 0.328125 L 142.929688 1.214844 C 142.878906 1.292969 142.773438 1.265625 142.757812 1.183594 L 142.535156 0.078125 C 142.511719 -0.0117188 142.394531 -0.03125 142.351562 0.0546875 L 141.753906 1.214844 C 141.75 1.234375 141.742188 1.246094 141.746094 1.257812 L 141.53125 5.476562 C 141.519531 5.507812 141.554688 5.546875 141.597656 5.550781 C 141.777344 5.574219 141.96875 5.621094 142.152344 5.691406 C 142.335938 5.777344 142.511719 5.871094 142.65625 5.988281 C 142.6875 6.011719 142.730469 6.007812 142.753906 5.976562 L 145.578125 2.847656 C 145.59375 2.839844 145.597656 2.832031 145.609375 2.8125 L 146 1.566406 "/>
<path style=" stroke:none;fill-rule:nonzero;fill:rgb(27.113342%,36.088562%,78.102112%);fill-opacity:1;" d="M 135.574219 16.417969 C 135.542969 16.503906 135.640625 16.574219 135.722656 16.53125 L 136.65625 15.90625 C 136.726562 15.863281 136.820312 15.917969 136.808594 16.003906 L 136.648438 17.105469 C 136.644531 17.203125 136.746094 17.261719 136.8125 17.191406 L 137.621094 16.414062 C 137.648438 16.382812 137.695312 16.382812 137.71875 16.394531 C 137.757812 16.410156 137.785156 16.4375 137.78125 16.480469 L 137.800781 17.601562 C 137.804688 17.691406 137.925781 17.726562 137.980469 17.65625 L 138.644531 16.769531 C 138.703125 16.691406 138.804688 16.722656 138.828125 16.796875 L 139.042969 17.90625 C 139.066406 17.996094 139.183594 18.015625 139.226562 17.929688 L 139.824219 16.769531 C 139.824219 16.75 139.832031 16.738281 139.832031 16.726562 L 140.050781 12.511719 C 140.050781 12.46875 140.023438 12.4375 139.988281 12.429688 C 139.796875 12.410156 139.613281 12.359375 139.429688 12.292969 C 139.238281 12.207031 139.070312 12.113281 138.921875 11.996094 C 138.894531 11.96875 138.851562 11.972656 138.820312 12.003906 L 135.988281 15.132812 C 135.988281 15.144531 135.980469 15.164062 135.972656 15.171875 L 135.574219 16.417969 "/>
<path style=" stroke:none;fill-rule:nonzero;fill:rgb(27.113342%,36.088562%,78.102112%);fill-opacity:1;" d="M 25.882812 39.195312 C 25.882812 35.84375 23.320312 32.816406 17.476562 32.816406 L 4.175781 32.816406 L 4.175781 45.089844 L 17.921875 45.089844 C 22.988281 45.089844 25.882812 42.925781 25.882812 39.195312 M 4.175781 29.136719 L 16.53125 29.136719 C 20.371094 29.136719 23.988281 27.300781 23.988281 22.917969 C 23.988281 19.949219 22.042969 16.972656 16.976562 16.972656 L 4.175781 16.972656 Z M 30.054688 39.519531 C 30.054688 44.871094 25.882812 48.929688 17.476562 48.929688 L 0 48.929688 L 0 13.132812 L 16.53125 13.132812 C 25.214844 13.132812 28.164062 18.269531 28.164062 22.597656 C 28.164062 27.191406 25.828125 29.515625 23.210938 30.652344 C 26.328125 31.625 30.054688 34.167969 30.054688 39.519531 "/>
<g clip-path="url(#clip1)" clip-rule="nonzero">
<path style=" stroke:none;fill-rule:nonzero;fill:rgb(27.113342%,36.088562%,78.102112%);fill-opacity:1;" d="M 38.570312 33.246094 L 57.496094 33.246094 C 56.71875 28.652344 53.378906 25.136719 48.035156 25.136719 C 42.691406 25.136719 39.351562 28.652344 38.570312 33.246094 M 56.441406 41.140625 L 61.003906 41.140625 C 59.054688 46.007812 54.9375 49.359375 48.3125 49.359375 C 39.796875 49.359375 34.230469 43.140625 34.230469 35.410156 C 34.230469 27.679688 39.519531 21.460938 48.035156 21.460938 C 56.550781 21.460938 61.839844 27.679688 61.839844 35.410156 L 61.839844 37.03125 L 38.515625 37.03125 C 39.128906 41.84375 42.746094 45.683594 48.367188 45.683594 C 52.265625 45.683594 54.9375 43.84375 56.441406 41.140625 "/>
</g>
<path style=" stroke:none;fill-rule:nonzero;fill:rgb(27.113342%,36.088562%,78.102112%);fill-opacity:1;" d="M 71.136719 48.925781 L 66.960938 48.925781 L 66.960938 11.078125 L 71.136719 11.078125 L 71.136719 48.925781 "/>
<g clip-path="url(#clip2)" clip-rule="nonzero">
<path style=" stroke:none;fill-rule:nonzero;fill:rgb(27.113342%,36.088562%,78.102112%);fill-opacity:1;" d="M 100.304688 35.410156 C 100.304688 29.839844 96.851562 25.136719 90.675781 25.136719 C 84.492188 25.136719 80.820312 29.839844 80.820312 35.410156 C 80.820312 40.980469 84.492188 45.683594 90.675781 45.683594 C 96.851562 45.683594 100.304688 40.980469 100.304688 35.410156 M 100.082031 26.273438 L 100.082031 21.894531 L 104.257812 21.894531 L 104.257812 48.925781 L 100.082031 48.925781 L 100.082031 44.601562 C 98.023438 47.523438 94.738281 49.359375 90.117188 49.359375 C 81.988281 49.359375 76.644531 43.140625 76.644531 35.410156 C 76.644531 27.679688 81.988281 21.460938 90.117188 21.460938 C 94.738281 21.460938 98.023438 23.351562 100.082031 26.273438 "/>
</g>
<path style=" stroke:none;fill-rule:nonzero;fill:rgb(27.113342%,36.088562%,78.102112%);fill-opacity:1;" d="M 134.8125 21.894531 L 123.960938 48.925781 L 119.0625 48.925781 L 108.152344 21.894531 L 112.714844 21.894531 L 121.511719 44.601562 L 130.25 21.894531 L 134.8125 21.894531 "/>
<path style=" stroke:none;fill-rule:nonzero;fill:rgb(27.113342%,36.088562%,78.102112%);fill-opacity:1;" d="M 138.710938 21.894531 L 142.882812 21.894531 L 142.882812 48.925781 L 138.710938 48.925781 L 138.710938 21.894531 "/>
<g clip-path="url(#clip3)" clip-rule="nonzero">
<path style=" stroke:none;fill-rule:nonzero;fill:rgb(27.113342%,36.088562%,78.102112%);fill-opacity:1;" d="M 172.050781 35.410156 C 172.050781 29.839844 168.597656 25.136719 162.417969 25.136719 C 156.238281 25.136719 152.566406 29.839844 152.566406 35.410156 C 152.566406 40.980469 156.238281 45.683594 162.417969 45.683594 C 168.597656 45.683594 172.050781 40.980469 172.050781 35.410156 M 171.824219 26.273438 L 171.824219 21.894531 L 176 21.894531 L 176 48.925781 L 171.824219 48.925781 L 171.824219 44.601562 C 169.765625 47.523438 166.480469 49.359375 161.863281 49.359375 C 153.734375 49.359375 148.394531 43.140625 148.394531 35.410156 C 148.394531 27.679688 153.734375 21.460938 161.863281 21.460938 C 166.480469 21.460938 169.765625 23.351562 171.824219 26.273438 "/>
</g>
</g>
</svg>

<svg xmlns="http://www.w3.org/2000/svg" width="176pt" height="65.813" viewBox="0 0 176 49.36"><defs><clipPath id="a"><path d="M34 21h28v28.36H34Zm0 0"/></clipPath><clipPath id="b"><path d="M76 21h29v28.36H76Zm0 0"/></clipPath><clipPath id="c"><path d="M148 21h28v28.36h-28Zm0 0"/></clipPath></defs><path d="M139.992 7.063a2.09 2.09 0 0 1 2.73 1.132 2.089 2.089 0 0 1-3.859 1.598 2.09 2.09 0 0 1 1.13-2.73M142.352 17.93c.046.078.164.066.187-.024l.219-1.097c.015-.086.125-.11.172-.04l.672.899c.054.066.171.031.18-.066l.015-1.114c0-.047.023-.078.058-.093a.083.083 0 0 1 .106.027l.805.773c.07.063.18.004.168-.082l-.16-1.11c-.012-.085.081-.144.148-.093l.937.621c.078.047.172-.031.145-.113l-.395-1.242c-.007-.02-.011-.031-.023-.04l-2.832-3.132c-.024-.035-.07-.04-.102-.008a2.2 2.2 0 0 1-.5.285 2 2 0 0 1-.558.153.06.06 0 0 0-.059.078l.203 4.218.02.04zM139.227.055c-.04-.082-.16-.067-.18.02l-.227 1.1c-.011.087-.12.106-.172.04l-.671-.895c-.051-.07-.172-.035-.176.059l-.02 1.117c0 .04-.023.078-.058.094-.036.012-.078 0-.11-.024l-.797-.777c-.074-.062-.18-.004-.171.082l.16 1.11c.011.078-.078.14-.153.093l-.93-.625c-.077-.043-.167.031-.148.117l.399 1.243q.01.024.015.039l2.84 3.132c.02.032.07.036.094.012q.216-.182.504-.3.273-.112.558-.141c.043 0 .075-.04.067-.074l-.215-4.223c.004-.012-.004-.024-.012-.043zM149.73 7.43c.075-.047.06-.164-.027-.184l-1.105-.223c-.082-.02-.106-.12-.043-.171l.898-.672a.094.094 0 0 0-.055-.172l-1.117-.02c-.043-.004-.078-.027-.09-.062q-.022-.054.02-.11l.777-.8c.063-.067.012-.176-.082-.16l-1.113.152a.095.095 0 0 1-.094-.145l.625-.941c.047-.074-.023-.172-.11-.149l-1.245.403c-.012.004-.024.015-.04.02l-3.132 2.831c-.024.024-.031.07-.012.098a2.1 2.1 0 0 1 .3.504c.071.184.13.371.142.559.007.039.043.066.082.066l4.218-.207q.02-.01.04-.02zM131.852 10.55c-.079.044-.059.165.027.184l1.101.227c.083.02.106.121.04.168l-.899.676c-.066.054-.031.172.063.168l1.117.023c.047 0 .074.024.086.063.015.035.015.074-.02.105l-.773.805c-.067.066-.008.172.078.16l1.11-.156c.081-.008.14.078.093.148l-.617.938c-.051.074.023.171.11.152l1.237-.402a.1.1 0 0 0 .043-.016l3.145-2.84a.08.08 0 0 0-.004-.098 2.3 2.3 0 0 1-.293-.5 2.3 2.3 0 0 1-.148-.562.066.066 0 0 0-.067-.066l-4.226.218c-.016.004-.028.004-.043.012zM148.21 14.207c.095.031.161-.066.118-.148l-.625-.938c-.047-.062.008-.16.098-.144l1.101.16c.09.008.157-.106.086-.172l-.773-.805c-.035-.027-.04-.066-.024-.101.024-.032.043-.063.094-.059l1.117-.023c.086.003.125-.11.047-.172l-.887-.672c-.07-.051-.046-.156.04-.176l1.101-.219c.086-.023.106-.144.02-.183l-1.157-.602c-.015.004-.03-.008-.046-.012l-4.211-.214c-.036 0-.07.03-.075.07-.02.187-.078.371-.144.562a2.6 2.6 0 0 1-.297.496c-.027.032-.027.075.008.102l3.133 2.828c.004.008.023.012.035.024zM133.363 3.777c-.09-.03-.16.067-.11.145l.63.937c.039.075-.012.164-.106.149l-1.101-.156c-.086-.012-.149.097-.086.168l.777.804c.035.031.031.067.016.102-.004.035-.043.062-.082.058l-1.121.024c-.094.004-.125.113-.055.172l.89.672c.07.05.044.156-.038.171l-1.098.223c-.09.024-.11.145-.027.18l1.164.601c.015.012.03.008.035.012l4.215.215c.043 0 .078-.031.078-.066.023-.188.078-.372.148-.567q.121-.269.301-.496c.02-.027.016-.078-.016-.094L134.641 4.2c-.004-.008-.02-.011-.036-.023zM146 1.566c.031-.086-.066-.156-.14-.113l-.938.625c-.074.047-.164-.012-.152-.094l.152-1.105a.094.094 0 0 0-.152-.09l-.805.777c-.035.036-.07.04-.11.024s-.058-.04-.054-.086l-.024-1.121c.004-.094-.12-.13-.18-.055l-.667.887a.093.093 0 0 1-.172-.031l-.223-1.106c-.023-.09-.14-.11-.183-.023l-.598 1.16c-.004.02-.012.031-.008.043l-.215 4.219c-.011.03.024.07.067.074.18.023.37.07.554.14.184.086.36.18.504.297.031.024.074.02.098-.011l2.824-3.13c.016-.007.02-.015.031-.034zM135.574 16.418c-.031.086.067.156.149.113l.933-.625c.07-.043.164.012.153.098l-.16 1.101c-.004.098.097.157.163.086l.81-.777a.09.09 0 0 1 .097-.02c.039.016.066.044.062.086l.02 1.122c.004.09.125.125.18.054l.664-.886a.103.103 0 0 1 .183.027l.215 1.11c.023.09.14.109.184.023l.597-1.16c0-.02.008-.032.008-.043l.219-4.215a.08.08 0 0 0-.063-.082 2.3 2.3 0 0 1-.558-.137 2.4 2.4 0 0 1-.508-.297c-.027-.027-.07-.023-.102.008l-2.832 3.129a.1.1 0 0 1-.015.039zM25.883 39.195c0-3.351-2.563-6.379-8.406-6.379H4.176V45.09h13.746c5.066 0 7.96-2.164 7.96-5.895M4.177 29.137H16.53c3.84 0 7.457-1.836 7.457-6.219 0-2.969-1.945-5.945-7.011-5.945H4.176ZM30.055 39.52c0 5.351-4.172 9.41-12.578 9.41H0V13.133h16.531c8.684 0 11.633 5.137 11.633 9.465 0 4.593-2.336 6.918-4.953 8.054 3.117.973 6.844 3.516 6.844 8.868" style="stroke:none;fill-rule:nonzero;fill:#455cc7;fill-opacity:1"/><g clip-path="url(#a)"><path d="M38.57 33.246h18.926c-.777-4.594-4.117-8.11-9.46-8.11-5.345 0-8.684 3.516-9.466 8.11m17.871 7.895h4.563c-1.95 4.867-6.066 8.218-12.691 8.218-8.516 0-14.083-6.218-14.083-13.949s5.29-13.95 13.805-13.95S61.84 27.68 61.84 35.41v1.621H38.516c.613 4.813 4.23 8.653 9.851 8.653 3.899 0 6.57-1.84 8.074-4.543" style="stroke:none;fill-rule:nonzero;fill:#455cc7;fill-opacity:1"/></g><path d="M71.137 48.926H66.96V11.078h4.176z" style="stroke:none;fill-rule:nonzero;fill:#455cc7;fill-opacity:1"/><g clip-path="url(#b)"><path d="M100.305 35.41c0-5.57-3.453-10.273-9.63-10.273-6.183 0-9.855 4.703-9.855 10.273s3.672 10.274 9.856 10.274c6.176 0 9.629-4.704 9.629-10.274m-.223-9.137v-4.378h4.176v27.03h-4.176v-4.323c-2.059 2.921-5.344 4.757-9.965 4.757-8.129 0-13.472-6.218-13.472-13.949s5.343-13.95 13.472-13.95c4.621 0 7.906 1.892 9.965 4.813" style="stroke:none;fill-rule:nonzero;fill:#455cc7;fill-opacity:1"/></g><path d="m134.813 21.895-10.852 27.03h-4.898l-10.91-27.03h4.562l8.797 22.707 8.738-22.707zM138.71 21.895h4.173v27.03h-4.172z" style="stroke:none;fill-rule:nonzero;fill:#455cc7;fill-opacity:1"/><g clip-path="url(#c)"><path d="M172.05 35.41c0-5.57-3.452-10.273-9.632-10.273s-9.852 4.703-9.852 10.273 3.672 10.274 9.852 10.274 9.633-4.704 9.633-10.274m-.227-9.137v-4.378H176v27.03h-4.176v-4.323c-2.058 2.921-5.344 4.757-9.96 4.757-8.13 0-13.47-6.218-13.47-13.949s5.34-13.95 13.47-13.95c4.616 0 7.902 1.892 9.96 4.813" style="stroke:none;fill-rule:nonzero;fill:#455cc7;fill-opacity:1"/></g></svg>
